X:130
T: ACH IN TRAUERN MUSS ICH LEBEN
N: E0722
O: Europa, Mitteleuropa, Deutschland, Hessen, Frankfurt
R: Liebes - Lied, Leid, Klage, Abschied
M: 3/4
L: 1/16
K: F
C2C2 | F6G2A2B2 | A2G2F4
A2B2 | c3Ad2c2B2A2 | A4G4
F2F2 | d6d2f2d2 | d2c2c4
A2A2 | c2B2B4c2cB | A8
F2F2 | d6d2f2d2 | d2c2c4
A2A2 | c2B2B4c2cB | A8

@@@ Tune index: 4443
